logos/stackblitz.svg

<?xml version="1.0" encoding="UTF-8"?>
<svg width="512px" height="105px" viewBox="0 0 512 105" version="1.1" xmlns="http://www.w3.org/2000/svg" preserveAspectRatio="xMidYMid">
    <title>StackBlitz</title>
    <g>
        <polygon fill="#49A2F8" points="31.2170693 61.8190033 0 61.8190033 57.0694894 0 41.7078458 42.7958401 72.924915 42.7958401 15.8512411 104.614843 31.2128847 61.8190033"></polygon>
        <path d="M140.918077,84.7480823 C154.173984,84.7480823 163.594192,77.7737054 163.594192,65.9994882 C163.594192,53.0941781 153.214016,49.8678506 143.973279,47.0755956 C134.465422,44.1956914 132.983732,42.2757552 132.983732,39.487674 C132.983732,37.0460161 135.162442,34.8673059 139.524036,34.8673059 C145.104372,34.8673059 147.984276,37.5719116 150.075337,41.929332 L161.849555,35.0426044 C157.404485,26.0606422 149.557789,21.2608017 139.524036,21.2608017 C128.972735,21.2608017 119.030804,28.0640538 119.030804,39.8340973 C119.030804,51.5206652 127.925117,55.8822594 136.994729,58.4115666 C146.151989,60.9408738 149.641265,62.4225637 149.641265,66.1747867 C149.641265,68.5287954 147.984276,71.1415781 141.356323,71.1415781 C134.469595,71.1415781 130.713198,67.7441259 128.534488,62.6855114 L116.501497,69.664062 C119.903123,78.6460243 128.100416,84.7480823 140.918077,84.7480823 Z M194.404994,52.4848071 L194.404994,39.9217465 L185.423032,39.9217465 L185.423032,27.7134568 L172.342423,31.6368046 L172.342423,39.9259203 L165.363872,39.9259203 L165.363872,52.4848071 L172.342423,52.4848071 L172.342423,67.9194244 C172.342423,80.1277141 177.309214,85.2739778 194.404994,83.5293402 L194.404994,71.6632999 C188.649359,72.0138969 185.423032,71.6632999 185.423032,67.9152506 L185.423032,52.4806333 L194.404994,52.4806333 L194.404994,52.4848071 Z M232.615897,39.9217465 L232.615897,44.0245666 C229.735993,40.7105899 225.466222,38.7030044 219.622938,38.7030044 C208.199318,38.7030044 198.779109,48.732584 198.779109,61.7255434 C198.779109,74.7226765 208.199318,84.7480823 219.622938,84.7480823 C225.466222,84.7480823 229.740167,82.7446706 232.615897,79.4306938 L232.615897,83.5293402 L245.696506,83.5293402 L245.696506,39.9259203 L232.615897,39.9259203 L232.615897,39.9217465 Z M222.239895,72.364494 C216.221312,72.364494 211.859718,68.2658476 211.859718,61.7255434 C211.859718,55.1852391 216.221312,51.0865927 222.239895,51.0865927 C228.258477,51.0865927 232.615897,55.1852391 232.615897,61.7297171 C232.615897,68.2658476 228.258477,72.364494 222.239895,72.364494 Z M276.223491,84.7480823 C284.771381,84.7480823 292.184004,80.3030127 295.936227,73.4997606 L284.508433,66.9594563 C283.114392,70.0104853 279.888065,71.8427722 276.052366,71.8427722 C270.384381,71.8427722 266.198085,67.7441259 266.198085,61.7255434 C266.198085,55.7111346 270.380207,51.6083145 276.048193,51.6083145 C279.888065,51.6083145 283.026743,53.4447752 284.508433,56.4916304 L295.936227,49.8678506 C292.184004,43.148074 284.683732,38.7030044 276.223491,38.7030044 C262.967584,38.7030044 253.113303,48.732584 253.113303,61.7255434 C253.113303,74.7226765 262.967584,84.7480823 276.223491,84.7480823 L276.223491,84.7480823 Z M343.058139,83.5293402 L326.751202,61.7255434 L342.624066,39.9259203 L327.360574,39.9259203 L314.279965,59.0251114 L314.279965,22.4837176 L301.199356,22.4837176 L301.199356,83.5293402 L314.279965,83.5293402 L314.279965,64.2548506 L328.232892,83.5293402 L343.058139,83.5293402 L343.058139,83.5293402 Z M386.152358,51.8712623 C389.466335,48.991358 391.47392,44.9845347 391.47392,39.9259203 C391.47392,29.3704452 382.838381,22.4795438 372.199431,22.4795438 L348.304573,22.4795438 L348.304573,83.5293402 L373.944068,83.5293402 C384.845967,83.5293402 393.65263,76.4673141 393.65263,65.6488912 C393.65263,59.4591839 390.689251,54.7511665 386.152358,51.8754361 L386.152358,51.8712623 Z M372.199431,35.5643262 C375.425758,35.5643262 377.520993,37.8306856 377.520993,40.9693639 C377.520993,44.1122159 375.338109,46.3785753 372.199431,46.3785753 L362.2575,46.3785753 L362.2575,35.5601524 L372.199431,35.5601524 L372.199431,35.5643262 Z M373.944068,70.4487316 L362.2575,70.4487316 L362.2575,58.7621636 L373.944068,58.7621636 C377.433344,58.7621636 379.699703,61.2038216 379.699703,64.6054476 C379.699703,68.0070736 377.433344,70.4487316 373.944068,70.4487316 L373.944068,70.4487316 Z M400.159544,83.5293402 L413.240153,83.5293402 L413.240153,19.8667611 L400.159544,19.8667611 L400.159544,83.5293402 L400.159544,83.5293402 Z M429.355096,36.086048 C433.669851,36.0408636 437.156607,32.5541081 437.201791,28.2393523 C437.156607,23.9245966 433.669851,20.4378411 429.355096,20.3926567 C425.04034,20.4378411 421.553584,23.9245966 421.5084,28.2393523 C421.553584,32.5541081 425.04034,36.0408636 429.355096,36.086048 L429.355096,36.086048 Z M422.814791,83.5293402 L435.8954,83.5293402 L435.8954,39.9259203 L422.814791,39.9259203 L422.814791,83.5293402 Z M471.021884,52.4848071 L471.021884,39.9217465 L462.035748,39.9217465 L462.035748,27.7134568 L448.95514,31.6368046 L448.95514,39.9259203 L441.980763,39.9259203 L441.980763,52.4848071 L448.95514,52.4848071 L448.95514,67.9194244 C448.95514,80.1277141 453.926105,85.2739778 471.01771,83.5293402 L471.01771,71.6632999 C465.262076,72.0138969 462.035748,71.6632999 462.035748,67.9152506 L462.035748,52.4806333 L471.01771,52.4806333 L471.021884,52.4848071 Z M494.645447,71.3210504 L511.131855,48.6449348 L511.131855,39.9217465 L477.992087,39.9217465 L477.992087,52.1342101 L493.602003,52.1342101 L477.115595,74.8061519 L477.115595,83.5293402 L512,83.5293402 L512,71.3210504 L494.645447,71.3210504 Z" fill="#000000"></path>
    </g>
</svg>

<svg preserveAspectRatio="xMidYMid" viewBox="0 0 512 105" xmlns="http://www.w3.org/2000/svg">
  <path fill="#49A2F8" d="M31.217 61.819H0L57.07 0 41.707 42.796h31.217L15.85 104.615l15.362-42.796z"/>
  <path d="M140.918 84.748c13.256 0 22.676-6.974 22.676-18.749 0-12.905-10.38-16.131-19.62-18.923-9.509-2.88-10.99-4.8-10.99-7.588 0-2.442 2.178-4.62 6.54-4.62 5.58 0 8.46 2.704 10.551 7.061l11.775-6.886c-4.446-8.982-12.292-13.782-22.326-13.782-10.551 0-20.493 6.803-20.493 18.573 0 11.687 8.894 16.048 17.964 18.578 9.157 2.529 12.646 4.01 12.646 7.763 0 2.354-1.657 4.967-8.285 4.967-6.886 0-10.643-3.398-12.822-8.456l-12.033 6.978c3.402 8.982 11.6 15.084 24.417 15.084Zm53.487-32.263V39.922h-8.982V27.713l-13.08 3.924v8.289h-6.98v12.559h6.98v15.434c0 12.209 4.966 17.355 22.062 15.61V71.663c-5.756.35-8.982 0-8.982-3.748V52.481h8.982v.004Zm38.21-12.563v4.103c-2.879-3.314-7.149-5.322-12.992-5.322-11.424 0-20.844 10.03-20.844 23.023 0 12.997 9.42 23.022 20.844 23.022 5.843 0 10.117-2.003 12.993-5.317v4.098h13.08V39.926h-13.08v-.004ZM222.24 72.364c-6.019 0-10.38-4.098-10.38-10.638s4.361-10.64 10.38-10.64c6.018 0 10.376 4.1 10.376 10.644 0 6.536-4.358 10.634-10.376 10.634Zm53.983 12.384c8.548 0 15.961-4.445 19.713-11.248l-11.428-6.54c-1.394 3.05-4.62 4.883-8.456 4.883-5.668 0-9.854-4.099-9.854-10.117 0-6.015 4.182-10.118 9.85-10.118 3.84 0 6.979 1.837 8.46 4.884l11.428-6.624c-3.752-6.72-11.252-11.165-19.713-11.165-13.255 0-23.11 10.03-23.11 23.023 0 12.997 9.855 23.022 23.11 23.022Zm66.835-1.219-16.307-21.803 15.873-21.8h-15.263l-13.081 19.1V22.483H301.2v61.045h13.08V64.255l13.953 19.274h14.825Zm43.094-31.658c3.314-2.88 5.322-6.886 5.322-11.945 0-10.556-8.636-17.446-19.275-17.446h-23.894v61.05h25.64c10.901 0 19.708-7.063 19.708-17.881 0-6.19-2.964-10.898-7.5-13.774v-.004ZM372.2 35.564c3.227 0 5.322 2.267 5.322 5.405 0 3.143-2.183 5.41-5.322 5.41h-9.942V35.56h9.942v.004Zm1.745 34.885h-11.687V58.762h11.687c3.49 0 5.756 2.442 5.756 5.843 0 3.402-2.267 5.844-5.756 5.844Zm26.216 13.08h13.08V19.867h-13.08v63.662Zm29.195-47.443a7.93 7.93 0 0 0 7.847-7.847 7.93 7.93 0 0 0-7.847-7.846 7.93 7.93 0 0 0-7.847 7.846 7.93 7.93 0 0 0 7.847 7.847Zm-6.54 47.443h13.08V39.926h-13.08v43.603Zm48.207-31.044V39.922h-8.986V27.713l-13.08 3.924v8.289h-6.975v12.559h6.974v15.434c0 12.209 4.971 17.355 22.063 15.61V71.663c-5.756.35-8.982 0-8.982-3.748V52.481h8.982l.004.004Zm23.623 18.836 16.487-22.676v-8.723h-33.14v12.212h15.61l-16.486 22.672v8.723H512V71.321h-17.355Z"/>
</svg>
